modules/themify-icons/icons/comments-smiley.svg

<?xml version="1.0" encoding="utf-8"?>
<!-- Generated by IcoMoon.io -->
<!DOCTYPE svg PUBLIC "-//W3C//DTD SVG 1.1//EN" "http://www.w3.org/Graphics/SVG/1.1/DTD/svg11.dtd">
<svg version="1.1" xmlns="http://www.w3.org/2000/svg" xmlns:xlink="http://www.w3.org/1999/xlink" width="17" height="17" viewBox="0 0 17 17">
<g>
</g>
	<path d="M13 8h1c0 2.481-2.019 4.5-4.5 4.5s-4.5-2.019-4.5-4.5h1c0 1.93 1.57 3.5 3.5 3.5s3.5-1.57 3.5-3.5zM7.5 6.5c0.553 0 1-0.447 1-1s-0.447-1-1-1-1 0.447-1 1 0.447 1 1 1zM11.5 6.5c0.553 0 1-0.447 1-1s-0.447-1-1-1-1 0.447-1 1 0.447 1 1 1zM17 7.5c0 4.136-3.364 7.5-7.5 7.5-1.34 0-2.648-0.359-3.803-1.041l-5.5 2.843 2.843-5.499c-0.681-1.155-1.040-2.463-1.040-3.803 0-4.136 3.364-7.5 7.5-7.5s7.5 3.364 7.5 7.5zM16 7.5c0-3.584-2.916-6.5-6.5-6.5s-6.5 2.916-6.5 6.5c0 1.244 0.358 2.459 1.036 3.511l0.157 0.243-1.664 3.218 3.217-1.664 0.243 0.157c1.053 0.677 2.266 1.035 3.511 1.035 3.584 0 6.5-2.916 6.5-6.5z" fill="#000000" />
</svg>

<svg xmlns="http://www.w3.org/2000/svg" width="17" height="17" viewBox="0 0 17 17"><path d="M13 8h1c0 2.481-2.019 4.5-4.5 4.5S5 10.481 5 8h1c0 1.93 1.57 3.5 3.5 3.5S13 9.93 13 8zM7.5 6.5a1 1 0 1 0 0-2 1 1 0 1 0 0 2zm4 0a1 1 0 1 0 0-2 1 1 0 1 0 0 2zm5.5 1c0 4.136-3.364 7.5-7.5 7.5a7.466 7.466 0 0 1-3.803-1.041l-5.5 2.843 2.843-5.499A7.475 7.475 0 0 1 2 7.5C2 3.364 5.364 0 9.5 0S17 3.364 17 7.5zm-1 0C16 3.916 13.084 1 9.5 1S3 3.916 3 7.5c0 1.244.358 2.459 1.036 3.511l.157.243-1.664 3.218 3.217-1.664.243.157A6.479 6.479 0 0 0 9.5 14c3.584 0 6.5-2.916 6.5-6.5z"/></svg>
